X:19
T:Saut' Un Pau, Miotto
M:2/4
L:1/8
N:La Bourre 4th edition 1929, page 34
Z:Steve Mansfield www.lesession.co.uk May 2012
K:G
B A G/ D/ G/ A/ | c B A2 |
d/ e/ d/ c/ B/ A/ B/ c/ |B A (GD) | B A G/ D/ G/ A/ |
c B A2 | d/ e/ d/ c/ B/ A/ B/ c/ |B A G2 |]
<end>
<start>
